X:1
T:Scottish Bretonne
C:Trad., fichier abc : Bernard Loffet
L:1/8
Q:320
K:C
M:4/4
 [AA,,]B [cA,]d [c2A,,2] [c2A,2] | [BG,,]A [BG,]c [B2G,,2] G,2 | [e2E,,2] [B2E,2] [e2E,,2] [B2E,2] | \
 [cA,,]d [cA,]B [c2A,,2] [A2A,2] | [AA,,]B [cA,]d [c2A,,2] [c2A,2] | [BG,,]A [BG,]c [B2G,,2] G,2 | \
 [e2E,,2] [B2E,2] [e2E,,2] [B2E,2] | [cA,,]d [cA,]B [A2A,,2] A,2 | [e2A,,2] [dA,]e [f2F,,2] [d2F,2] | \
 [d2G,,2] [cG,]d [e2C,,2] [c2C,2] | [e2E,,2] [B2E,2] [e2E,,2] [B2E,2] | [cA,,]d [cA,]B [c2A,,2] [A2A,2] | \
 [e2A,,2] [dA,]e [f2F,,2] [d2F,2] | [d2G,,2] [cG,]d [e2C,,2] [c2C,2] | [e2E,,2] [B2E,2] [e2E,,2] [B2E,2] | \
 [cA,,]d [cA,]B [A2A,,2] A,2 | \
W:Created with TablEdit http://www.tabledit.com/ by Bernard Loffet
